components/AppDevelopmentCommon/Svg/svgs/cloud.svg

<svg width="40" height="40" viewBox="0 0 40 40" fill="none" xmlns="http://www.w3.org/2000/svg">
<path d="M35.7042 19.6241C35.6512 15.8571 32.5702 12.8092 28.7909 12.8092C27.9383 12.8092 27.0925 12.9683 26.3014 13.2737C25.6925 11.4273 24.5522 9.77032 23.0274 8.53749C21.2266 7.0816 18.9572 6.27979 16.6372 6.27979C11.1758 6.27979 6.70586 10.6066 6.47504 16.0122C4.73691 16.5271 3.17219 17.5676 2.01995 18.9858C0.717391 20.5891 0 22.6117 0 24.6811C0 29.6652 4.0547 33.72 9.03878 33.72H32.6137C36.6865 33.72 39.9999 30.4064 40 26.3335C40 23.4492 38.2953 20.8204 35.7042 19.6241ZM32.6137 32.168H9.03878C4.91052 32.168 1.5519 28.8093 1.5519 24.6811C1.5519 22.9671 2.14586 21.292 3.22454 19.9645C4.28831 18.6553 5.77534 17.7346 7.41156 17.372C7.77171 17.2923 8.0258 16.9701 8.0196 16.6015L8.01918 16.5759C8.01846 16.5345 8.01763 16.493 8.01763 16.4515C8.01763 11.6986 11.8843 7.83179 16.6372 7.83179C18.6317 7.83179 20.504 8.49321 22.0517 9.74445C23.5557 10.9603 24.6181 12.6621 25.0431 14.5362C25.0973 14.7748 25.2608 14.9739 25.4844 15.0735C25.7081 15.173 25.9653 15.1612 26.1789 15.0416C26.9741 14.5965 27.8774 14.3612 28.7909 14.3612C31.7476 14.3612 34.1531 16.7667 34.1531 19.7234C34.1531 19.8308 34.1487 19.9452 34.1395 20.0836C34.1166 20.4262 34.3218 20.7432 34.6437 20.8627C36.9192 21.7074 38.448 23.906 38.448 26.3336C38.448 29.5507 35.8308 32.168 32.6137 32.168Z" fill="black"/>
</svg>

<svg xmlns="http://www.w3.org/2000/svg" width="40" height="40" fill="none">
  <path fill="#000" d="M35.704 19.624a6.922 6.922 0 0 0-6.913-6.815c-.853 0-1.698.16-2.49.465a10.231 10.231 0 0 0-3.274-4.737 10.195 10.195 0 0 0-6.39-2.257c-5.461 0-9.931 4.327-10.162 9.732a9.085 9.085 0 0 0-4.455 2.974A9.058 9.058 0 0 0 0 24.68c0 4.984 4.055 9.039 9.039 9.039h23.575c4.073 0 7.386-3.314 7.386-7.386a7.421 7.421 0 0 0-4.296-6.71Zm-3.09 12.544H9.039c-4.128 0-7.487-3.359-7.487-7.487a7.5 7.5 0 0 1 1.673-4.716 7.516 7.516 0 0 1 4.187-2.593.776.776 0 0 0 .608-.77v-.026c-.002-.041-.002-.083-.002-.125 0-4.752 3.866-8.62 8.62-8.62 1.994 0 3.866.662 5.414 1.913a8.653 8.653 0 0 1 2.991 4.792.776.776 0 0 0 1.136.506 5.36 5.36 0 0 1 2.612-.68 5.368 5.368 0 0 1 5.348 5.722.776.776 0 0 0 .505.779 5.86 5.86 0 0 1 3.804 5.47 5.84 5.84 0 0 1-5.834 5.835Z" />
</svg>
